X: 12
T: Mayor Harrison's Fedora
C: Edward Cronin
Z: Philip W
S: https://thesession.org/tunes/367#setting50355
R: reel
M: 4/4
L: 1/8
K: Edor
|:GBEG B2 AF|GFGA B2AG|FADF ADFA|dcdB AGF2|
GBEG B2 AF|GFGA B3 c|dedB AGFA|GEED E4:|
|:Beed e2 ef|g2 fg edBA|GABc d3c|dfaf gfed|
Beed e2 ef|gefd edBc|dedB AGFA|GEED E4:|
|:G2GF GABc|d2AG FDD2|Beed e3f|gefd edBc|
dedB A3F|GFEF GABc|dedB AGFA|GEED E4:|

